X: 34166
T: Reel Le Blanc
R: reel
M: 4/4
K: Dmixolydian
D3E F2DF|GBAG FD(3DDD|D2DF GECE|GECE EDDC|
B,CDE FDEF|GBAG FADB,|A,DDF GECE|GECE D3D|
A,D (3DDD F2DF|GBAG (3FGA DB,|A,DDF GECE|GECE EDDC|
B,CDE FDEF|GBAG FADB,|A,DDF GECE|GECE ED (3EFG|
Add^c d2dc|(3ABc de fdfd|ABcd c2cA|GA(3Bcd ecdc|
Add^c d2dc|Adde fdfd|ABcd cAGE|CEGE EDFA|
(3ded ^ce d2dc|(3ABc de fdfd|ABcd c2cA|GA(3Bcd ecdc|
Add^c d2dc|Adde fdfd|ABcd cAGE|CEGE EDD2|

